icons/plexis/48/gpk-log.svg

<svg viewBox="0 0 48 48" xmlns="http://www.w3.org/2000/svg" xmlns:xlink="http://www.w3.org/1999/xlink">
  <linearGradient id="a" gradientTransform="matrix(0 -1 1 0 -.0000015 47.999998)" gradientUnits="userSpaceOnUse" x1="1" x2="47">
    <stop offset="0" stop-color="#46b0a9"/>
    <stop offset="1" stop-color="#51b9b4"/>
  </linearGradient>
  <path d="m47 24c0 22.703-.297 23-23 23-22.703 0-23-.297-23-23 0-22.703.297-23 23-23 22.703 0 23 .297 23 23z" fill="url(#a)"/>
  <path d="m22.12 15.75a6.374 6.374 0 0 0-6.374 6.374 6.374 6.374 0 0 0  6.374 6.374 6.374 6.374 0 0 0  3.951-1.381l3.042 3.04 1.043-1.043-3.037-3.036a6.374 6.374 0 0 0 1.375-3.954 6.374 6.374 0 0 0-6.374-6.374zm0 1.312a5.061 5.061 0 0 1 5.061 5.061 5.061 5.061 0 0 1-5.061 5.061 5.061 5.061 0 0 1-5.061-5.061 5.061 5.061 0 0 1  5.061-5.061zm8.345 11.927l-1.479 1.479 3.276 3.278 1.481-1.481z" opacity=".1" transform="matrix(1.3336308 0 0 1.3336308 -8.0058157 -8.0044819)"/>
  <path d="m28.24 29.719l1.48-1.48 3.277 3.277-1.48 1.48m-3.277-3.277" fill="#f9f9f9" transform="matrix(1.3336308 0 0 1.3336308 -8.0058157 -8.0044819)"/>
  <path d="m25.09 26.13l1.043-1.043 3.277 3.277-1.043 1.043m-3.277-3.277" fill="#f9f9f9" transform="matrix(1.3336308 0 0 1.3336308 -8.0058157 -8.0044819)"/>
  <path d="m20.5 12a8.5 8.5 0 0 0-8.5 8.5 8.5 8.5 0 0 0  8.5 8.5 8.5 8.5 0 0 0  8.5-8.5 8.5 8.5 0 0 0-8.5-8.5zm0 1.75a6.75 6.75 0 0 1 6.75 6.75 6.75 6.75 0 0 1-6.75 6.75 6.75 6.75 0 0 1-6.75-6.75 6.75 6.75 0 0 1  6.75-6.75z" fill="#f9f9f9"/>
</svg>

<svg xmlns="http://www.w3.org/2000/svg" viewBox="0 0 48 48">
 <defs>
  <linearGradient id="linearGradient3764" x1="1" x2="47" gradientUnits="userSpaceOnUse" gradientTransform="matrix(0,-1,1,0,-1.5e-6,47.999998)">
   <stop style="stop-color:#46b0a9;stop-opacity:1"/>
   <stop offset="1" style="stop-color:#51b9b4;stop-opacity:1"/>
  </linearGradient>
 </defs>
 <g>
  
  
  
 </g>
 <g>
  <path d="m 47,24 C 47,46.703 46.703,47 24,47 1.297,47 1,46.703 1,24 1,1.297 1.297,1 24,1 46.703,1 47,1.297 47,24 z" style="fill:url(#linearGradient3764);fill-opacity:1"/>
 </g>
 <g transform="matrix(1.3336308,0,0,1.3336308,-8.0058157,-8.0044819)">
  <g>
   <!-- color: #51b9b4 -->
   <g>
    <path d="m 22.12 15.75 a 6.374 6.374 0 0 0 -6.374 6.374 6.374 6.374 0 0 0 6.374 6.374 6.374 6.374 0 0 0 3.951 -1.381 l 3.042 3.04 1.043 -1.043 -3.037 -3.036 a 6.374 6.374 0 0 0 1.375 -3.954 6.374 6.374 0 0 0 -6.374 -6.374 z m 0 1.312 a 5.061 5.061 0 0 1 5.061 5.061 5.061 5.061 0 0 1 -5.061 5.061 5.061 5.061 0 0 1 -5.061 -5.061 5.061 5.061 0 0 1 5.061 -5.061 z m 8.345 11.927 -1.479 1.479 3.276 3.278 1.481 -1.481 -3.278 -3.276 z" style="fill:#000;opacity:0.1;fill-opacity:1;stroke:none;fill-rule:nonzero"/>
   </g>
  </g>
 </g>
 <g>
  
 </g>
 <g>
  <path d="m 28.24,29.719 1.48,-1.48 3.277,3.277 -1.48,1.48 M 28.24,29.719" transform="matrix(1.3336308,0,0,1.3336308,-8.0058157,-8.0044819)" style="fill:#f9f9f9;fill-opacity:1;stroke:none;fill-rule:nonzero"/>
  <path d="m 25.09,26.13 1.043,-1.043 3.277,3.277 -1.043,1.043 M 25.09,26.13" transform="matrix(1.3336308,0,0,1.3336308,-8.0058157,-8.0044819)" style="fill:#f9f9f9;fill-opacity:1;stroke:none;fill-rule:nonzero"/>
  <path d="M 20.5 12 A 8.5 8.5 0 0 0 12 20.5 A 8.5 8.5 0 0 0 20.5 29 A 8.5 8.5 0 0 0 29 20.5 A 8.5 8.5 0 0 0 20.5 12 z M 20.5 13.75 A 6.75 6.75 0 0 1 27.25 20.5 A 6.75 6.75 0 0 1 20.5 27.25 A 6.75 6.75 0 0 1 13.75 20.5 A 6.75 6.75 0 0 1 20.5 13.75 z" style="fill:#f9f9f9;opacity:1;fill-opacity:1;stroke:none"/>
 </g>
</svg>
